X: 34019
T: Reel Como
R: reel
M: 4/4
K: Cmajor
[1 G2GG AGAB|cBAG C2CE:|2 G2GG AGAB|c2Gc e2ce||
[1 G2GG AGAB|cBAG C2CE:|2 G2GG AGAB|c2Gc e2ce||
[1 G2GG AGAB|cBAG C2CE:|2 G2GG AGAB|c2Gc e2ce||

